X: 061666
T: Faith Then I Will (Said the Fiddler)
T: M'anam go nD\'eanfad, arsa an Fidl\'eir
S: B.Breathnach:"Ceol Rince na hEireann" IV/42 
Z: B.Black
L: 1/8
M: 9/8
R: slipjig
K: D
FGA ABc d2A|FGA d2f ecA|FGA ABc d2B|ABc dAG FED :|
fed edc d2A|BcB ged cde|fed edc d2B|ABc dAG FED :|
